svg/set/HOU/80.svg

<?xml version="1.0" encoding="UTF-8" standalone="no"?>
<svg
   width="162.86557"
   height="203.47"
   viewBox="0 0 162.86557 203.47"
   version="1.1"
   id="svg2"
   xmlns="http://www.w3.org/2000/svg"
   xmlns:svg="http://www.w3.org/2000/svg">
  <defs
     id="defs2" />
  <g
     id="g2"
     transform="translate(0,-0.56)">
    <path
       fill="#808080"
       d="m 53.08,46.96 c 5.5,-15.41 10.64,-30.95 16.04,-46.4 1.7,21.77 5.38,43.64 2.9,65.5 -0.72,7.12 -3.06,14.07 -6.89,20.12 -7.37,12.19 -19.63,20.85 -25.84,33.78 1.97,1.62 4,3.17 6.23,4.4 12.11,7.16 25.46,12.64 35.79,22.45 12.25,-11.69 28.97,-16.71 42.28,-26.83 -5.82,-12.28 -17.23,-20.64 -24.6,-31.9 -4.51,-6.54 -7.36,-14.19 -8.13,-22.11 -2.45,-21.83 1.2,-43.66 2.91,-65.41 5.52,15.75 10.72,31.6 16.37,47.29 2.42,6.83 5.29,13.59 9.53,19.51 7.33,10.02 18.02,16.66 27.24,24.73 7.98,7.3 15.4,16.7 15.9,27.96 0.61,8.99 -3.87,17.5 -10.07,23.72 -16.63,16.86 -41.8,22.43 -56.9,41.11 -4.96,5.34 -7.08,12.41 -9.38,19.14 -3.36,0.01 -6.72,0.01 -10.07,0.01 -1.92,-5.34 -3.33,-10.99 -6.67,-15.67 -3.17,-4.47 -6.96,-8.49 -11.16,-12 C 44.4,164.64 26.4,158.58 12.7,146.24 6.05,140.31 0.67,132.33 0,123.23 v -3.47 C 0.55,111.82 4.53,104.56 9.64,98.61 18.03,88.53 29.93,82.3 38.75,72.66 45.78,65.58 49.82,56.24 53.08,46.96 M 66.01,26.54 C 61.7,38.38 58.28,50.59 52.84,61.98 47.63,73.31 38.11,81.79 28.42,89.27 c -6.44,4.86 -12.8,10.08 -17.46,16.75 -4.08,5.67 -6.61,12.92 -5.01,19.92 1.75,7.73 7.46,13.78 13.47,18.58 13.37,10.43 29.63,16.47 42.66,27.38 8.3,6.96 15.4,15.81 18.17,26.47 0.6,0 1.8,0 2.39,0 2.07,-7.34 5.82,-14.14 11.11,-19.66 12.94,-14.63 31.91,-21.23 47.44,-32.45 6.67,-4.94 13.2,-11.09 15.51,-19.33 2.15,-7.5 -0.66,-15.42 -5.17,-21.47 C 143.17,93.8 129.82,87.32 120.3,76.78 107.08,63.1 103.46,43.71 96.88,26.53 c -0.97,9.46 -1.67,18.97 -1.29,28.48 0.29,8.11 0.77,16.54 4.5,23.92 6.87,14.08 20.82,23.17 27.72,37.19 1.33,2.75 1.49,6.48 -1.14,8.53 -5.87,5.17 -13.19,8.24 -19.92,12.1 -9.2,5.1 -19.08,10.09 -25.48,18.74 -7.68,-10.43 -19.99,-15.67 -30.94,-21.87 -5.35,-3.1 -11.4,-5.62 -15.41,-10.5 -2.28,-4.39 1.06,-9.06 3.39,-12.69 C 47.26,97.57 61.22,87.65 65.42,71.9 68.53,57 67.47,41.59 66.01,26.54 Z"
       id="path1" />
    <path
       d="m 66.01,26.54 c 1.46,15.05 2.52,30.46 -0.59,45.36 -4.2,15.75 -18.16,25.67 -27.11,38.53 -2.33,3.63 -5.67,8.3 -3.39,12.69 4.01,4.88 10.06,7.4 15.41,10.5 10.95,6.2 23.26,11.44 30.94,21.87 6.4,-8.65 16.28,-13.64 25.48,-18.74 6.73,-3.86 14.05,-6.93 19.92,-12.1 2.63,-2.05 2.47,-5.78 1.14,-8.53 -6.9,-14.02 -20.85,-23.11 -27.72,-37.19 -3.73,-7.38 -4.21,-15.81 -4.5,-23.92 -0.38,-9.51 0.32,-19.02 1.29,-28.48 6.58,17.18 10.2,36.57 23.42,50.25 9.52,10.54 22.87,17.02 31.23,28.68 4.51,6.05 7.32,13.97 5.17,21.47 -2.31,8.24 -8.84,14.39 -15.51,19.33 -15.53,11.22 -34.5,17.82 -47.44,32.45 -5.29,5.52 -9.04,12.32 -11.11,19.66 -0.59,0 -1.79,0 -2.39,0 C 77.48,187.71 70.38,178.86 62.08,171.9 49.05,160.99 32.79,154.95 19.42,144.52 13.41,139.72 7.7,133.67 5.95,125.94 c -1.6,-7 0.93,-14.25 5.01,-19.92 C 15.62,99.35 21.98,94.13 28.42,89.27 38.11,81.79 47.63,73.31 52.84,61.98 58.28,50.59 61.7,38.38 66.01,26.54 Z"
       id="path2" />
  </g>
</svg>

<?xml version="1.0" encoding="UTF-8"?>
<svg xmlns="http://www.w3.org/2000/svg" width="162.86557" height="203.47" viewBox="0 0 162.86557 203.47" version="1.1">
  <g>
    <path fill="#808080" d=" M 53.08 46.96 C 58.58 31.55 63.72 16.01 69.12 0.56 C 70.82 22.33 74.50 44.20 72.02 66.06 C 71.30 73.18 68.96 80.13 65.13 86.18 C 57.76 98.37 45.50 107.03 39.29 119.96 C 41.26 121.58 43.29 123.13 45.52 124.36 C 57.63 131.52 70.98 137.00 81.31 146.81 C 93.56 135.12 110.28 130.10 123.59 119.98 C 117.77 107.70 106.36 99.34 98.99 88.08 C 94.48 81.54 91.63 73.89 90.86 65.97 C 88.41 44.14 92.06 22.31 93.77 0.56 C 99.29 16.31 104.49 32.16 110.14 47.85 C 112.56 54.68 115.43 61.44 119.67 67.36 C 127.00 77.38 137.69 84.02 146.91 92.09 C 154.89 99.39 162.31 108.79 162.81 120.05 C 163.42 129.04 158.94 137.55 152.74 143.77 C 136.11 160.63 110.94 166.20 95.84 184.88 C 90.88 190.22 88.76 197.29 86.46 204.02 C 83.10 204.03 79.74 204.03 76.39 204.03 C 74.47 198.69 73.06 193.04 69.72 188.36 C 66.55 183.89 62.76 179.87 58.56 176.36 C 44.40 164.64 26.40 158.58 12.70 146.24 C 6.05 140.31 0.67 132.33 0.00 123.23 L 0.00 119.76 C 0.55 111.82 4.53 104.56 9.64 98.61 C 18.03 88.53 29.93 82.30 38.75 72.66 C 45.78 65.58 49.82 56.24 53.08 46.96 M 66.01 26.54 C 61.70 38.38 58.28 50.59 52.84 61.98 C 47.63 73.31 38.11 81.79 28.42 89.27 C 21.98 94.13 15.62 99.35 10.96 106.02 C 6.88 111.69 4.35 118.94 5.95 125.94 C 7.70 133.67 13.41 139.72 19.42 144.52 C 32.79 154.95 49.05 160.99 62.08 171.90 C 70.38 178.86 77.48 187.71 80.25 198.37 C 80.85 198.37 82.05 198.37 82.64 198.37 C 84.71 191.03 88.46 184.23 93.75 178.71 C 106.69 164.08 125.66 157.48 141.19 146.26 C 147.86 141.32 154.39 135.17 156.70 126.93 C 158.85 119.43 156.04 111.51 151.53 105.46 C 143.17 93.80 129.82 87.32 120.30 76.78 C 107.08 63.10 103.46 43.71 96.88 26.53 C 95.91 35.99 95.21 45.50 95.59 55.01 C 95.88 63.12 96.36 71.55 100.09 78.93 C 106.96 93.01 120.91 102.10 127.81 116.12 C 129.14 118.87 129.30 122.60 126.67 124.65 C 120.80 129.82 113.48 132.89 106.75 136.75 C 97.55 141.85 87.67 146.84 81.27 155.49 C 73.59 145.06 61.28 139.82 50.33 133.62 C 44.98 130.52 38.93 128.00 34.92 123.12 C 32.64 118.73 35.98 114.06 38.31 110.43 C 47.26 97.57 61.22 87.65 65.42 71.90 C 68.53 57.00 67.47 41.59 66.01 26.54 Z"/>
    <path d=" M 66.01 26.54 C 67.47 41.59 68.53 57.00 65.42 71.90 C 61.22 87.65 47.26 97.57 38.31 110.43 C 35.98 114.06 32.64 118.73 34.92 123.12 C 38.93 128.00 44.98 130.52 50.33 133.62 C 61.28 139.82 73.59 145.06 81.27 155.49 C 87.67 146.84 97.55 141.85 106.75 136.75 C 113.48 132.89 120.80 129.82 126.67 124.65 C 129.30 122.60 129.14 118.87 127.81 116.12 C 120.91 102.10 106.96 93.01 100.09 78.93 C 96.36 71.55 95.88 63.12 95.59 55.01 C 95.21 45.50 95.91 35.99 96.88 26.53 C 103.46 43.71 107.08 63.10 120.30 76.78 C 129.82 87.32 143.17 93.80 151.53 105.46 C 156.04 111.51 158.85 119.43 156.70 126.93 C 154.39 135.17 147.86 141.32 141.19 146.26 C 125.66 157.48 106.69 164.08 93.75 178.71 C 88.46 184.23 84.71 191.03 82.64 198.37 C 82.05 198.37 80.85 198.37 80.25 198.37 C 77.48 187.71 70.38 178.86 62.08 171.90 C 49.05 160.99 32.79 154.95 19.42 144.52 C 13.41 139.72 7.70 133.67 5.95 125.94 C 4.35 118.94 6.88 111.69 10.96 106.02 C 15.62 99.35 21.98 94.13 28.42 89.27 C 38.11 81.79 47.63 73.31 52.84 61.98 C 58.28 50.59 61.70 38.38 66.01 26.54 Z"/>
  </g>
</svg>
